X: 4
T: March Of The Kings Of Laois
R: jig
M: 6/8
L: 1/8
K: Dmix
|:A2F A2D|A2F A2D|B2G A2F|G2F E2D|
A2F A2D|A2F A2d|B2d A2G|F3 E2D|F2D G2E|
A3 A>GF|E>cG E3|G>cG E3|D3 D3|D3 D3:||
|:B2G d2G|B2G d2G|A2d A2F|A2d A>Bc|
B2d d>BA|G>FG E>FG|F>ED G>AB|A3 AGF|
E>cG E2|G>cG E3|D3 D3|D3 D3:||


Tune 835	Setting 835

